X: 4286
M: C
L: 1/8
K: D
     DFED B,2D2 | A,2(A,B,) D2D2 |\
[1,3 (3EEE E2 (3FFF F2 | DFED B,2A,2 :|\
[2,4 dcdA BdcB | (3ABA (3GFE D2 |]
|: (3(efg) |\
   agfa gfeg | fedf ecAc |\
[1 dcdA Bcde | (3(fed) g>fe2 :|\
[2 dcdA BdcB | AGFE D2 :|


